X: 2129
T: Ülfet Etsem Yâr ile Ağyâre Ne
C: Şevki Bey
O: Turkey
F: http://compmusic.upf.edu/node/140
N: hicaz-uzzal--sarki--yuruksemai--ulfet_etsem--sevki_bey
N: makam= hicaz-uzzal
N: form= sarki
N: usul= yuruksemai = 6/8
M: 6/8
L: 1/16
K: C _7/8B ^f ^c 
Q: 1/4=132
%%MIDI tuningsystem comma53
d2c2 B2A4e=f  | edc2 d2e4f2  | g2=f2 e2fe d2dc  | d12  | 
w:  ARANAĞME  |   |   |   | 
e2f2 g2a2 g2=f2  | edcB AcB4A2  | =fed2 c2dc B2BA  | 
w:   |   |   | 
A12  | d2c2 B2A4e=f  | edc2 d2e4f2  | g2=f2 e2fe d2dc  | 
w:   |  ARANAĞME  |   |   | 
d12  | e2f2 g2a2 g2=f2  | edcB AcB4A2  | \
w:   |   |   | 
=fed2 c2dc B2BA  | 
w:   | 
A12  | d2c2 BA=fe dcBA  | A6dc BAG2  | d4 e=fed dcd2  | 
w:   |  Ül *  fet_ *  et  |  sem   |  yâr  i *  le   | 
e2f2 g2ag =b2ag  | f2fe edd4z2  | AGAB cdcB A4  | 
w:  ağ  |  yâ *  *  re  *  ne    |  SAZ  | 
d2c2 BA=fe dcBA  | A6dc BAG2  | d4 e=fed dcd2  | 
w:  Ül *  fet_ *  et  |  sem   |  yâr  i *  le   | 
e2f2 g2ag =b2ag  | f2fe edd4z2  | AGAB cdec d4  | 
w:  ağ  |  yâ *  *  re  *  ne    |  SAZ  | 
d4 a2g2 f2e2  | g2f2 e=fed dcd2  | e2f2 a2g=f edcB  | 
w:  Yan sam_ â  |  teş  |  ler  *  gi bi   | 
A4 =f2e2 d2cB  | d2cB BAA4z2  | AGAB cdec d4  | 
w:  dil  |  dâ *  *  re  *  ne    |  SAZ  | 
d4 a2g2 f2e2  | g2f2 e=fed dcd2  | e2f2 a2g=f edcB  | 
w:  Yan sam_ â  |  teş  |  ler  *  gi bi   | 
A4 =f2e2 d2cB  | d2cB BAA4z2  | defg a=bgb a4  | 
w:  dil  |  dâ *  *  re  *  ne    |  SAZ  | 
g4 a2a6  | agg4eg f2ed  | d4 e2f4g2  | a2=b2 agf4e2  | 
w:  Ben  he lâk   |  ol  |  sam  mü rüv  |  vet  | 
(3edef2 edd4z2  | defg a=bgb a4  | g4 a2a6  | \
w:  kâ *  *  *  re  *  ne    |  SAZ  |  Ben  he lâk   | 
agg4eg f2ed  | 
w:  ol  | 
d4 e2f4g2  | a2=b2 agf4e2  | (3edef2 edd4z2  | \
w:  sam  mü rüv  |  vet  |  kâ *  *  *  re  *  ne    | 
AGAB cdec d4  | 
w:  SAZ  | 
d4 a2g2 f2e2  | g2f2 e=fed dcd2  | e2f2 a2g=f edcB  | 
w:  Yan sam_ â  |  teş  |  ler  *  gi bi   | 
A4 =f2e2 d2cB  | d2cB BAA4z2  | |


